Papirus-nordic/64x64/places/user-nordic-desktop.svg

<svg xmlns="http://www.w3.org/2000/svg" width="64" height="64"><rect width="50" height="45" x="7" y="11" rx="2.5" ry="2.5" opacity=".2"/><path d="M7 14.9v37.6C7 53.885 8.115 55 9.5 55h45c1.385 0 2.5-1.115 2.5-2.5V14.9z" fill="#82abaa"/><path d="M9.5 10A2.495 2.495 0 0 0 7 12.5V15h50v-2.5c0-1.385-1.115-2.5-2.5-2.5zM21.6 50c-1.44 0-2.6 1.115-2.6 2.5V55h26v-2.5c0-1.385-1.16-2.5-2.6-2.5z" fill="#4e6766"/><path d="M9.5 10A2.495 2.495 0 0 0 7 12.5v1C7 12.115 8.115 11 9.5 11h45c1.385 0 2.5 1.115 2.5 2.5v-1c0-1.385-1.115-2.5-2.5-2.5h-45z" fill="#fff" opacity=".1"/></svg>

<svg xmlns="http://www.w3.org/2000/svg" width="64" height="64" version="1.1">
 <rect style="opacity:0.2" width="50" height="45" x="7" y="11" rx="2.5" ry="2.5"/>
 <path style="fill:#82abaa" d="M 7,14.9 7,52.5 C 7,53.885 8.115,55 9.5,55 l 45,0 c 1.385,0 2.5,-1.115 2.5,-2.5 l 0,-37.6 z"/>
 <path style="fill:#4e6766" d="M 9.5,10 C 8.115,10 7,11.115 7,12.5 V 15 H 57 V 12.5 C 57,11.115 55.885,10 54.5,10 Z"/>
 <path style="fill:#4e6766" d="M 21.6,50 C 20.16,50 19,51.115 19,52.5 V 55 H 45 V 52.5 C 45,51.115 43.84,50 42.4,50 Z"/>
 <path style="fill:#ffffff;opacity:0.1" d="M 9.5 10 C 8.115 10 7 11.115 7 12.5 L 7 13.5 C 7 12.115 8.115 11 9.5 11 L 54.5 11 C 55.885 11 57 12.115 57 13.5 L 57 12.5 C 57 11.115 55.885 10 54.5 10 L 9.5 10 z"/>
</svg>
